src/icons/outline/users/login.svg

<svg width="24" height="24" viewBox="0 0 24 24" fill="none" xmlns="http://www.w3.org/2000/svg">
<g clip-path="url(#clip0_92_746)">
<path d="M14.1739 2C15.337 2.05783 16.2119 2.98324 16.1622 4.08203V8.02441C16.162 8.4194 15.8344 8.74699 15.4171 8.74707C14.9997 8.74704 14.6711 8.41943 14.671 8.02441V4.04297C14.6807 3.71557 14.4427 3.45598 14.1348 3.43652H2.9903C2.72194 3.45587 2.48329 3.70613 2.49323 4.00488V19.9375C2.48337 20.2651 2.72224 20.5256 3.03034 20.5449H14.1739C14.4423 20.5256 14.6908 20.2744 14.671 19.9756V15.9658C14.6712 15.5709 14.9997 15.2432 15.4171 15.2432C15.8344 15.2432 16.1619 15.5709 16.1622 15.9658V19.9375C16.2118 20.9977 15.3372 21.9323 14.2139 21.9805H2.9903V22C1.82722 21.9421 0.952313 21.0071 1.00202 19.918V4.04297C0.952562 2.99265 1.82722 2.05801 2.95026 2H14.1739Z" fill="#1D1B20"/>
<path d="M10.794 8.17871C11.0823 7.8992 11.5594 7.89922 11.8477 8.17871C12.1358 8.45825 12.1359 8.92076 11.8477 9.2002L9.70026 11.2822H22.2559C22.6635 11.2822 23.002 11.6097 23.002 12.0049C23.002 12.4 22.6635 12.7275 22.2559 12.7275H9.70026L11.8477 14.8096C12.1359 15.089 12.1358 15.5515 11.8477 15.8311C11.6986 15.9756 11.5092 16.043 11.3204 16.043C11.1316 16.0429 10.943 15.9755 10.794 15.8311L7.37409 12.5156C7.30451 12.4482 7.24473 12.3709 7.21491 12.2842C7.17521 12.1975 7.15534 12.1012 7.15534 12.0049C7.15534 11.9086 7.17523 11.8123 7.21491 11.7256C7.25466 11.6389 7.30454 11.5616 7.37409 11.4941L10.794 8.17871Z" fill="#1D1B20"/>
</g>
<defs>
<clipPath id="clip0_92_746">
<rect width="24" height="24" fill="white"/>
</clipPath>
</defs>
</svg>

<svg xmlns="http://www.w3.org/2000/svg" width="24" height="24" fill="none" viewBox="0 0 24 24"><g fill="currentColor" clip-path="url(#a)"><path d="M14.174 2c1.163.058 2.038.983 1.988 2.082v3.942a.733.733 0 0 1-.745.723.734.734 0 0 1-.746-.723V4.043a.577.577 0 0 0-.536-.606H2.99a.557.557 0 0 0-.497.568v15.933a.58.58 0 0 0 .537.607h11.144a.55.55 0 0 0 .497-.57v-4.01c0-.394.329-.722.746-.722s.745.328.745.723v3.972c.05 1.06-.825 1.994-1.948 2.043H2.99V22c-1.163-.058-2.038-.993-1.988-2.082V4.043C.952 2.993 1.827 2.058 2.95 2z"/><path d="M10.794 8.179a.767.767 0 0 1 1.054 0 .71.71 0 0 1 0 1.021L9.7 11.282h12.556c.407 0 .746.328.746.723s-.338.722-.746.722H9.7l2.148 2.083a.71.71 0 0 1 0 1.021.75.75 0 0 1-.528.212.75.75 0 0 1-.526-.212l-3.42-3.315a.6.6 0 0 1-.16-.232.67.67 0 0 1 0-.558.8.8 0 0 1 .16-.232z"/></g><defs><clipPath id="a"><path fill="currentColor" d="M0 0h24v24H0z"/></clipPath></defs></svg>
